source/Agenda.popclipext/agenda.svg

<svg height="233" viewBox="0 0 245 233" width="245" xmlns="http://www.w3.org/2000/svg"><g fill-rule="evenodd" transform="translate(19.283203 14.038689)"><path d="m103.131836 0c4.726237 0 9.117943 2.39907615 13.175118 7.19722844l89.956718 197.51603556h-21.806641l-49.197265-106.251953h-65.525391c-31.9166667 70.834635-47.875 106.251953-47.875 106.251953h-21.859375l90.0282897-197.34776207c4.0094605-4.91033462 8.3773093-7.36550193 13.1035463-7.36550193z"/><path d="m103.131836 146.267952c11.668567 0 17.194612 3.519479 22.091769 6.82779l.552005.373423.548409.370416c3.921629 2.641 7.703208 4.957667 14.289262 4.957667 6.349459 0 13.12914-1.614907 20.339044-4.844722l23.504706 50.760738h-162.597656s7.5841558-16.831987 22.7524674-50.49596c4.972819 3.619899 10.6293434 5.146671 16.9701889 4.579944 9.0093571-.80523 13.8693776-3.710911 18.9035377-6.521432l.6726329-.37398c5.2829874-2.922069 10.965552-5.633884 21.9736341-5.633884z" opacity=".563779"/></g></svg>

<?xml version="1.0" encoding="UTF-8"?>
<svg width="245px" height="233px" viewBox="0 0 245 233" version="1.1" xmlns="http://www.w3.org/2000/svg" xmlns:xlink="http://www.w3.org/1999/xlink">
    <title>agenda</title>
    <g id="agenda" stroke="none" stroke-width="1" fill="none" fill-rule="evenodd">
        <g id="Path-2" transform="translate(19.283203, 14.038689)" fill="#000000">
            <path d="M103.131836,0 C107.858073,0 112.249779,2.39907615 116.306954,7.19722844 L206.263672,204.713264 L184.457031,204.713264 L135.259766,98.461311 L69.734375,98.461311 C37.8177083,169.295946 21.859375,204.713264 21.859375,204.713264 L0,204.713264 L90.0282897,7.36550193 C94.0377502,2.45516731 98.405599,0 103.131836,0 Z" id="Combined-Shape"></path>
            <path d="M103.131836,146.267952 C114.800403,146.267952 120.326448,149.787431 125.223605,153.095742 L125.77561,153.469165 L126.324019,153.839581 C130.245648,156.480581 134.027227,158.797248 140.613281,158.797248 C146.96274,158.797248 153.742421,157.182341 160.952325,153.952526 L184.457031,204.713264 L21.859375,204.713264 C21.859375,204.713264 29.4435308,187.881277 44.6118424,154.217304 C49.5846614,157.837203 55.2411858,159.363975 61.5820313,158.797248 C70.5913884,157.992018 75.4514089,155.086337 80.485569,152.275816 L81.1582019,151.901836 C86.4411893,148.979767 92.1237539,146.267952 103.131836,146.267952 Z" id="Combined-Shape" opacity="0.563778832"></path>
        </g>
    </g>
</svg>
